public/images/logo-dark.svg

<svg width="257" height="36" viewBox="0 0 257 36" fill="none" xmlns="http://www.w3.org/2000/svg">
<path d="M36 18C36 20.3638 35.5344 22.7044 34.6298 24.8883C33.7252 27.0722 32.3994 29.0565 30.7279 30.7279C29.0565 32.3994 27.0722 33.7252 24.8883 34.6298C22.7044 35.5344 20.3638 36 18 36C15.6362 36 13.2956 35.5344 11.1117 34.6298C8.92784 33.7252 6.94353 32.3994 5.27208 30.7279C3.60062 29.0565 2.27475 27.0722 1.37017 24.8883C0.465583 22.7044 -2.06649e-07 20.3638 0 18L9 18C9 19.1819 9.23279 20.3522 9.68508 21.4442C10.1374 22.5361 10.8003 23.5282 11.636 24.364C12.4718 25.1997 13.4639 25.8626 14.5558 26.3149C15.6478 26.7672 16.8181 27 18 27C19.1819 27 20.3522 26.7672 21.4442 26.3149C22.5361 25.8626 23.5282 25.1997 24.364 24.364C25.1997 23.5282 25.8626 22.5361 26.3149 21.4442C26.7672 20.3522 27 19.1819 27 18H36Z" fill="#FE6019"/>
<path d="M-1.57361e-06 18C-1.78026e-06 15.6362 0.465582 13.2956 1.37016 11.1117C2.27475 8.92784 3.60062 6.94354 5.27207 5.27208C6.94353 3.60063 8.92783 2.27476 11.1117 1.37017C13.2956 0.465586 15.6362 1.78026e-06 18 1.57361e-06C20.3638 1.36696e-06 22.7044 0.465585 24.8883 1.37017C27.0722 2.27475 29.0565 3.60062 30.7279 5.27208C32.3994 6.94353 33.7252 8.92784 34.6298 11.1117C35.5344 13.2956 36 15.6362 36 18L27 18C27 16.8181 26.7672 15.6478 26.3149 14.5558C25.8626 13.4639 25.1997 12.4718 24.364 11.636C23.5282 10.8003 22.5361 10.1374 21.4441 9.68509C20.3522 9.23279 19.1819 9 18 9C16.8181 9 15.6478 9.23279 14.5558 9.68509C13.4639 10.1374 12.4718 10.8003 11.636 11.636C10.8003 12.4718 10.1374 13.4639 9.68508 14.5559C9.23279 15.6478 9 16.8181 9 18L-1.57361e-06 18Z" fill="#FFFAF3"/>
<path d="M70.004 29.708L72.18 30.456V31H61.47V30.456L63.68 29.708L61.13 23.724H52.154L49.536 29.708L52.63 30.456V31H46.102V30.456L48.584 29.708L58.478 7.2H60.212L70.004 29.708ZM52.528 22.84H60.756L56.676 13.252L52.528 22.84ZM82.3601 29.708L83.9241 30.456V31H74.4041V30.456L76.4441 29.708V15.496L74.4041 14.952V14.408L81.7821 13.694L82.3601 14.306L82.2581 16.312L82.3601 16.414C83.1534 15.6207 84.0941 14.9973 85.1821 14.544C86.2927 14.0907 87.3921 13.864 88.4801 13.864C89.3641 13.864 90.1347 14.034 90.7921 14.374C91.4494 14.6913 91.9934 15.122 92.4241 15.666C92.8547 16.21 93.1721 16.856 93.3761 17.604C93.6027 18.3293 93.7161 19.1 93.7161 19.916V29.708L95.7561 30.456V31H86.2361V30.456L87.8001 29.708V20.664C87.8001 20.0293 87.7547 19.4173 87.6641 18.828C87.5961 18.216 87.4601 17.6833 87.2561 17.23C87.0747 16.754 86.8254 16.38 86.5081 16.108C86.2134 15.8133 85.8281 15.666 85.3521 15.666C84.8307 15.666 84.3094 15.802 83.7881 16.074C83.2667 16.346 82.7907 16.7313 82.3601 17.23V29.708ZM117.609 30.116V30.694L110.231 31.136L109.653 30.558L109.755 28.824L109.653 28.722C108.996 29.4473 108.225 30.0367 107.341 30.49C106.48 30.9433 105.505 31.17 104.417 31.17C103.397 31.17 102.513 30.966 101.765 30.558C101.017 30.15 100.394 29.5833 99.8953 28.858C99.3966 28.1327 99.0226 27.2713 98.7733 26.274C98.524 25.254 98.3993 24.1433 98.3993 22.942C98.3993 20.018 99.102 17.774 100.507 16.21C101.935 14.646 103.998 13.864 106.695 13.864C107.307 13.864 107.84 13.9207 108.293 14.034C108.747 14.1473 109.2 14.2947 109.653 14.476V8.016L107.613 7.472V6.928L114.991 6.214L115.569 6.826V29.606L117.609 30.116ZM109.653 14.952C109.268 14.7707 108.928 14.6347 108.633 14.544C108.339 14.4533 108.033 14.408 107.715 14.408C105.471 14.408 104.349 17.0147 104.349 22.228C104.349 23.2253 104.406 24.166 104.519 25.05C104.655 25.9113 104.837 26.6707 105.063 27.328C105.313 27.9627 105.619 28.4727 105.981 28.858C106.344 29.2207 106.775 29.402 107.273 29.402C107.727 29.402 108.146 29.266 108.531 28.994C108.917 28.722 109.291 28.348 109.653 27.872V14.952ZM122.112 15.496L120.072 14.952V14.408L127.45 13.694L128.028 14.306L127.926 16.482L128.028 16.584C128.277 16.0853 128.606 15.632 129.014 15.224C129.354 14.884 129.796 14.578 130.34 14.306C130.884 14.0113 131.552 13.864 132.346 13.864C132.844 13.864 133.366 13.9433 133.91 14.102C134.476 14.238 134.986 14.476 135.44 14.816C135.893 15.156 136.267 15.598 136.562 16.142C136.856 16.6633 137.004 17.298 137.004 18.046C137.004 19.0887 136.72 19.8707 136.154 20.392C135.61 20.9133 134.884 21.174 133.978 21.174C133.026 21.174 132.266 20.8793 131.7 20.29C131.156 19.7007 130.884 18.8507 130.884 17.74V15.088C130.77 15.02 130.657 14.986 130.544 14.986C130.158 14.986 129.807 15.1333 129.49 15.428C129.195 15.7 128.934 16.006 128.708 16.346C128.458 16.754 128.232 17.2073 128.028 17.706V29.708L131.088 30.456V31H120.072V30.456L122.112 29.708V15.496ZM139.784 22.534C139.784 21.2193 139.999 20.0293 140.43 18.964C140.86 17.8987 141.472 16.992 142.266 16.244C143.059 15.4733 144 14.884 145.088 14.476C146.176 14.068 147.388 13.864 148.726 13.864C150.04 13.864 151.242 14.068 152.33 14.476C153.44 14.884 154.381 15.4733 155.152 16.244C155.945 16.992 156.557 17.8987 156.988 18.964C157.418 20.0293 157.634 21.2193 157.634 22.534C157.634 23.8713 157.418 25.0727 156.988 26.138C156.557 27.2033 155.945 28.11 155.152 28.858C154.381 29.606 153.44 30.184 152.33 30.592C151.242 30.9773 150.04 31.17 148.726 31.17C147.388 31.17 146.176 30.9773 145.088 30.592C144 30.184 143.059 29.606 142.266 28.858C141.472 28.11 140.86 27.2033 140.43 26.138C139.999 25.0727 139.784 23.8713 139.784 22.534ZM145.734 22.534C145.734 23.9847 145.802 25.2313 145.938 26.274C146.096 27.294 146.312 28.1327 146.584 28.79C146.856 29.4247 147.173 29.9007 147.536 30.218C147.898 30.5127 148.295 30.66 148.726 30.66C149.61 30.66 150.324 30.0367 150.868 28.79C151.412 27.5207 151.684 25.4353 151.684 22.534C151.684 19.61 151.412 17.5247 150.868 16.278C150.324 15.0087 149.61 14.374 148.726 14.374C148.295 14.374 147.898 14.5327 147.536 14.85C147.173 15.1447 146.856 15.6207 146.584 16.278C146.312 16.9127 146.096 17.7513 145.938 18.794C145.802 19.8367 145.734 21.0833 145.734 22.534ZM168.715 29.708L170.143 30.456V31H160.759V30.456L162.799 29.708V15.496L160.759 14.952V14.408L168.137 13.694L168.715 14.306L168.613 16.312L168.715 16.414C169.463 15.6207 170.347 14.9973 171.367 14.544C172.387 14.0907 173.395 13.864 174.393 13.864C175.481 13.864 176.365 14.1247 177.045 14.646C177.747 15.1447 178.291 15.7907 178.677 16.584C179.538 15.7453 180.524 15.088 181.635 14.612C182.768 14.1133 183.879 13.864 184.967 13.864C185.828 13.864 186.565 14.0227 187.177 14.34C187.811 14.6573 188.333 15.0993 188.741 15.666C189.149 16.21 189.443 16.856 189.625 17.604C189.829 18.3293 189.931 19.1 189.931 19.916V29.708L191.971 30.456V31H182.587V30.456L184.015 29.708V20.664C184.015 20.0293 183.981 19.4173 183.913 18.828C183.845 18.216 183.72 17.6833 183.539 17.23C183.357 16.754 183.119 16.38 182.825 16.108C182.53 15.8133 182.167 15.666 181.737 15.666C181.283 15.666 180.796 15.7907 180.275 16.04C179.776 16.2893 179.3 16.6633 178.847 17.162C179.028 17.57 179.153 18.012 179.221 18.488C179.289 18.964 179.323 19.44 179.323 19.916V29.708L180.751 30.456V31H171.979V30.456L173.407 29.708V20.664C173.407 20.0293 173.373 19.4173 173.305 18.828C173.237 18.216 173.123 17.6833 172.965 17.23C172.806 16.754 172.591 16.38 172.319 16.108C172.047 15.8133 171.707 15.666 171.299 15.666C170.868 15.666 170.426 15.8133 169.973 16.108C169.519 16.38 169.1 16.7767 168.715 17.298V29.708ZM200.565 22.5C200.565 23.588 200.656 24.574 200.837 25.458C201.041 26.342 201.359 27.1013 201.789 27.736C202.243 28.348 202.832 28.824 203.557 29.164C204.283 29.4813 205.178 29.64 206.243 29.64C207.127 29.64 207.932 29.504 208.657 29.232C209.405 28.9373 210.153 28.4047 210.901 27.634L211.309 28.042C210.38 28.9713 209.326 29.7307 208.147 30.32C206.991 30.8867 205.529 31.17 203.761 31.17C202.288 31.17 200.973 30.966 199.817 30.558C198.684 30.1273 197.732 29.538 196.961 28.79C196.191 28.042 195.601 27.1467 195.193 26.104C194.808 25.0613 194.615 23.9053 194.615 22.636C194.615 21.276 194.831 20.0633 195.261 18.998C195.715 17.91 196.338 16.992 197.131 16.244C197.947 15.4733 198.899 14.884 199.987 14.476C201.075 14.068 202.265 13.864 203.557 13.864C204.713 13.864 205.779 14.0227 206.753 14.34C207.751 14.6573 208.612 15.1107 209.337 15.7C210.085 16.2893 210.663 17.0033 211.071 17.842C211.502 18.658 211.717 19.576 211.717 20.596C211.717 20.7773 211.706 20.9927 211.683 21.242C211.661 21.4687 211.615 21.6953 211.547 21.922L210.969 22.5H200.565ZM203.727 14.374C203.342 14.374 202.957 14.51 202.571 14.782C202.209 15.054 201.88 15.496 201.585 16.108C201.291 16.6973 201.053 17.4793 200.871 18.454C200.69 19.406 200.588 20.5847 200.565 21.99L206.141 21.276C206.141 20.0067 206.085 18.93 205.971 18.046C205.858 17.162 205.699 16.448 205.495 15.904C205.291 15.36 205.031 14.9747 204.713 14.748C204.419 14.4987 204.09 14.374 203.727 14.374ZM234.916 30.116V30.694L227.538 31.136L226.96 30.558L227.062 28.824L226.96 28.722C226.303 29.4473 225.532 30.0367 224.648 30.49C223.787 30.9433 222.812 31.17 221.724 31.17C220.704 31.17 219.82 30.966 219.072 30.558C218.324 30.15 217.701 29.5833 217.202 28.858C216.703 28.1327 216.329 27.2713 216.08 26.274C215.831 25.254 215.706 24.1433 215.706 22.942C215.706 20.018 216.409 17.774 217.814 16.21C219.242 14.646 221.305 13.864 224.002 13.864C224.614 13.864 225.147 13.9207 225.6 14.034C226.053 14.1473 226.507 14.2947 226.96 14.476V8.016L224.92 7.472V6.928L232.298 6.214L232.876 6.826V29.606L234.916 30.116ZM226.96 14.952C226.575 14.7707 226.235 14.6347 225.94 14.544C225.645 14.4533 225.339 14.408 225.022 14.408C222.778 14.408 221.656 17.0147 221.656 22.228C221.656 23.2253 221.713 24.166 221.826 25.05C221.962 25.9113 222.143 26.6707 222.37 27.328C222.619 27.9627 222.925 28.4727 223.288 28.858C223.651 29.2207 224.081 29.402 224.58 29.402C225.033 29.402 225.453 29.266 225.838 28.994C226.223 28.722 226.597 28.348 226.96 27.872V14.952ZM248.666 28.722C247.85 29.4927 246.944 30.1047 245.946 30.558C244.972 30.9887 243.895 31.204 242.716 31.204C241.22 31.204 240.098 30.8527 239.35 30.15C238.602 29.4473 238.228 28.4613 238.228 27.192C238.228 26.24 238.444 25.4693 238.874 24.88C239.328 24.2907 239.996 23.8033 240.88 23.418C241.764 23.0327 242.852 22.704 244.144 22.432C245.459 22.1373 246.966 21.8313 248.666 21.514V18.08C248.666 16.9693 248.451 16.0853 248.02 15.428C247.612 14.748 246.978 14.408 246.116 14.408C245.844 14.408 245.595 14.4533 245.368 14.544C245.142 14.612 244.904 14.714 244.654 14.85V17.604C244.654 18.7147 244.382 19.5533 243.838 20.12C243.317 20.6867 242.614 20.97 241.73 20.97C240.846 20.97 240.132 20.7093 239.588 20.188C239.044 19.6667 238.772 18.9753 238.772 18.114C238.772 17.3207 238.999 16.652 239.452 16.108C239.906 15.564 240.484 15.1333 241.186 14.816C241.912 14.476 242.705 14.238 243.566 14.102C244.45 13.966 245.323 13.898 246.184 13.898C247.567 13.898 248.78 14.034 249.822 14.306C250.888 14.5553 251.76 14.918 252.44 15.394C253.143 15.87 253.664 16.4367 254.004 17.094C254.367 17.7287 254.548 18.4313 254.548 19.202V29.334C254.548 29.7873 254.786 30.014 255.262 30.014C255.444 30.014 255.636 29.98 255.84 29.912C256.044 29.844 256.214 29.742 256.35 29.606L256.656 29.912C256.226 30.3427 255.591 30.6487 254.752 30.83C253.936 31.0113 253.03 31.102 252.032 31.102C251.624 31.102 251.239 31.068 250.876 31C250.514 30.9547 250.185 30.8527 249.89 30.694C249.618 30.5353 249.38 30.3087 249.176 30.014C248.972 29.6967 248.836 29.3 248.768 28.824L248.666 28.722ZM248.666 22.058C247.873 22.194 247.182 22.33 246.592 22.466C246.026 22.5793 245.55 22.7833 245.164 23.078C244.802 23.3727 244.53 23.8033 244.348 24.37C244.19 24.914 244.11 25.6733 244.11 26.648C244.11 27.5093 244.246 28.1893 244.518 28.688C244.813 29.164 245.266 29.402 245.878 29.402C246.377 29.402 246.853 29.266 247.306 28.994C247.782 28.722 248.236 28.348 248.666 27.872V22.058Z" fill="#fff"/>
</svg>

<?xml version="1.0" encoding="utf-8"?>
<!-- Generator: Adobe Illustrator 27.4.1, SVG Export Plug-In . SVG Version: 6.00 Build 0)  -->
<svg version="1.1" id="Layer_1" xmlns="http://www.w3.org/2000/svg" xmlns:xlink="http://www.w3.org/1999/xlink" x="0px" y="0px"
	 viewBox="0 0 257 36" style="enable-background:new 0 0 257 36;" xml:space="preserve">
<style type="text/css">
	.st0{fill:#FFFFFF;}
	.st1{font-family:'Poppins';}
	.st2{font-size:30.4739px;}
	.st3{fill:#4E73AD;}
	.st4{fill:#FFFAF3;}
</style>
<text transform="matrix(1.0135 0 0 1 51.4194 30.3877)" class="st0 st1 st2">MyWebClass</text>
<path class="st3" d="M36,18c0,2.4-0.5,4.7-1.4,6.9s-2.2,4.2-3.9,5.8c-1.7,1.7-3.7,3-5.8,3.9C22.7,35.5,20.4,36,18,36
	s-4.7-0.5-6.9-1.4s-4.2-2.2-5.8-3.9c-1.7-1.7-3-3.7-3.9-5.8C0.5,22.7,0,20.4,0,18h9c0,1.2,0.2,2.4,0.7,3.4c0.5,1.1,1.1,2.1,2,2.9
	c0.8,0.8,1.8,1.5,2.9,2S16.9,27,18,27s2.4-0.2,3.4-0.7c1.1-0.5,2.1-1.1,2.9-2c0.8-0.8,1.5-1.8,2-2.9S27,19.1,27,18H36z"/>
<path class="st4" d="M0,18c0-2.4,0.5-4.7,1.4-6.9s2.2-4.2,3.9-5.8C7,3.6,9,2.3,11.1,1.4C13.3,0.5,15.6,0,18,0s4.7,0.5,6.9,1.4
	s4.2,2.2,5.8,3.9c1.7,1.7,3,3.7,3.9,5.8c0.9,2.2,1.4,4.5,1.4,6.9h-9c0-1.2-0.2-2.4-0.7-3.4c-0.5-1.1-1.1-2.1-2-2.9
	c-0.8-0.8-1.8-1.5-2.9-2C20.4,9.2,19.2,9,18,9s-2.4,0.2-3.4,0.7c-1.1,0.5-2.1,1.1-2.9,2c-0.8,0.8-1.5,1.8-2,2.9
	C9.2,15.6,9,16.8,9,18H0z"/>
</svg>
